public/CloudUpload.svg

<svg width="110" height="112" viewBox="0 0 110 112" fill="none" xmlns="http://www.w3.org/2000/svg">
<g clip-path="url(#clip0_3550_4327)">
<path d="M88.3812 46.8537C86.8557 38.9097 82.6933 31.7563 76.605 26.6155C70.5167 21.4746 62.8803 18.6652 55 18.667C41.8746 18.667 30.475 26.3203 24.7979 37.5203C18.1227 38.2615 11.9496 41.5113 7.46459 46.6452C2.97962 51.779 0.49922 58.4348 0.5 65.3337C0.5 80.7803 12.7171 93.3337 27.75 93.3337H86.7917C99.3267 93.3337 109.5 82.8803 109.5 70.0003C109.5 57.6803 100.19 47.6937 88.3812 46.8537ZM86.7917 84.0003H27.75C17.7129 84.0003 9.58333 75.647 9.58333 65.3337C9.58333 55.767 16.5321 47.787 25.7517 46.807L30.6112 46.2937L32.8821 41.8603C34.9711 37.683 38.1412 34.1788 42.0436 31.7334C45.9459 29.288 50.4292 27.9963 55 28.0003C66.8992 28.0003 77.1633 36.6803 79.4796 48.6737L80.8421 55.6737L87.7908 56.187C91.205 56.4229 94.4054 57.9789 96.748 60.5419C99.0906 63.1048 100.401 66.4843 100.417 70.0003C100.417 77.7003 94.2854 84.0003 86.7917 84.0003ZM36.8333 60.667H48.4146V74.667H61.5854V60.667H73.1667L55 42.0003L36.8333 60.667Z" fill="#265597"/>
</g>
<defs>
<clipPath id="clip0_3550_4327">
<rect width="109" height="112" fill="white" transform="translate(0.5)"/>
</clipPath>
</defs>
</svg>

<svg xmlns="http://www.w3.org/2000/svg" width="110" height="112" fill="none" viewBox="0 0 110 112"><g clip-path="url(#a)"><path fill="#265597" d="M88.381 46.854c-1.525-7.944-5.688-15.098-11.776-20.238-6.088-5.141-13.725-7.95-21.605-7.949-13.125 0-24.525 7.653-30.202 18.853-6.675.741-12.848 3.991-17.333 9.125S.499 58.435.5 65.334c0 15.446 12.217 28 27.25 28h59.042C99.327 93.334 109.5 82.88 109.5 70c0-12.32-9.31-22.306-21.119-23.146M86.791 84H27.75C17.713 84 9.583 75.647 9.583 65.334c0-9.567 6.95-17.547 16.169-18.527l4.86-.513 2.27-4.434c2.09-4.177 5.26-7.681 9.162-10.127A24.35 24.35 0 0 1 55 28c11.9 0 22.163 8.68 24.48 20.674l1.362 7 6.949.513c3.414.236 6.614 1.792 8.957 4.355s3.653 5.942 3.669 9.458c0 7.7-6.132 14-13.625 14M36.834 60.667h11.582v14h13.17v-14h11.582L55 42z"/></g><defs><clipPath id="a"><path fill="#fff" d="M.5 0h109v112H.5z"/></clipPath></defs></svg>
